_icons/SVG/544-whirlipede.svg

<svg xmlns="http://www.w3.org/2000/svg" viewBox="0 0 32 32"><title>544-whirlipede</title><path d="M15.79584,5.956a10.06479,10.06479,0,0,0,0,20.12958c.14964,0,.29515-.0159.44314-.02239V5.97836C16.091,5.97188,15.94548,5.956,15.79584,5.956Z" style="fill:#c6b7e9"/><path d="M9.73938,16.02073a6.4996,6.4996,0,0,0,6.4996,6.49961V9.52113A6.49964,6.49964,0,0,0,9.73938,16.02073Z" style="fill:#5c6664"/><path d="M14.1305,15.1706A2.27,2.27,0,0,0,16.239,18.297V15.1706Z" style="fill:#f0c13e"/><path d="M14.1305,15.1706H16.239V13.74451A2.274,2.274,0,0,0,14.1305,15.1706Z" style="fill:#d4c9ef"/><polygon points="15.296 15.171 16.239 16.676 16.239 15.171 15.296 15.171" style="fill:#373f3f"/><path d="M16.68212,5.956a10.06479,10.06479,0,0,1,0,20.12958c-.14963,0-.29514-.0159-.44314-.02239V5.97836C16.387,5.97188,16.53249,5.956,16.68212,5.956Z" style="fill:#b8a5e4"/><path d="M22.73859,16.02073A6.4996,6.4996,0,0,1,16.239,22.52034V9.52113A6.49964,6.49964,0,0,1,22.73859,16.02073Z" style="fill:#505957"/><path d="M18.34746,15.1706A2.27,2.27,0,0,1,16.239,18.297V15.1706Z" style="fill:#e8ba36"/><path d="M18.34746,15.1706H16.239V13.74451A2.274,2.274,0,0,1,18.34746,15.1706Z" style="fill:#c6b7e9"/><polygon points="17.182 15.171 16.239 16.676 16.239 15.171 17.182 15.171" style="fill:#2b3332"/><path d="M10.33837,8.53388l-2.3585,2.907c-.58541-1.659-.61851-3.13763.38394-4.27822Z" style="fill:#d4c9ef"/><path d="M6.77416,17.25278l1.17557,3.554c-1.71269-.40194-2.97563-1.17169-3.39531-2.631Z" style="fill:#d4c9ef"/><path d="M25.20919,14.68688l-1.10978-3.57513c1.705.43349,2.9535,1.22641,3.34617,2.69327Z" style="fill:#c6b7e9"/><path d="M21.91609,23.2971l2.47151-2.81154c.51941,1.6808.49407,3.15961-.55267,4.25971Z" style="fill:#c6b7e9"/><path d="M25.64125,0a9.60528,9.60528,0,0,0-3.41,1.4663l2.07455.54786Z" style="fill:#c6b7e9"/><path d="M24.30577,2.01416,22.23122,1.4663a16.3712,16.3712,0,0,0-1.749,1.36071l2.83386.67976Z" style="fill:#5c6664"/><path d="M16.84232,6.74641l2.65585.65815.713-1.70027-2.15139-.43024Q17.44986,5.96849,16.84232,6.74641Z" style="fill:#c6b7e9"/><path d="M22.48986,4.75285l-3.188-.80865q-.62215.62472-1.242,1.32985l2.15139.43024,2.08424-.65822Z" style="fill:#5c6664"/><path d="M23.31605,3.50677,20.48219,2.827c-.39424.34412-.78755.72274-1.18035,1.11719l3.188.80865Z" style="fill:#c6b7e9"/><path d="M6.11205,32a9.60514,9.60514,0,0,0,3.39921-1.4912l-2.0785-.53268Z" style="fill:#d4c9ef"/><path d="M7.43276,29.97612l2.0785.53268a16.37092,16.37092,0,0,0,1.739-1.37348l-2.83876-.659Z" style="fill:#687271"/><path d="M14.86139,25.18941,12.2008,24.5507l-.70058,1.70544,2.15448.41449Q14.25956,25.97175,14.86139,25.18941Z" style="fill:#d4c9ef"/><path d="M9.22859,27.22423l3.19385.7853q.61756-.62925,1.23226-1.3389l-2.15448-.41449-2.07937.67346Z" style="fill:#687271"/><path d="M8.41154,28.47632l2.83876.659c.3917-.347.78223-.72848,1.17214-1.12579l-3.19385-.7853Z" style="fill:#d4c9ef"/></svg>

<svg xmlns="http://www.w3.org/2000/svg" viewBox="0 0 32 32"><path d="M15.796 5.956a10.065 10.065 0 000 20.13c.15 0 .295-.016.443-.023V5.978c-.148-.006-.294-.022-.443-.022z" fill="#c6b7e9"/><path d="M9.74 16.02a6.5 6.5 0 006.499 6.5V9.521a6.5 6.5 0 00-6.5 6.5z" fill="#5c6664"/><path d="M14.13 15.17a2.27 2.27 0 002.109 3.127v-3.126z" fill="#f0c13e"/><path d="M14.13 15.17h2.109v-1.425a2.274 2.274 0 00-2.109 1.426z" fill="#d4c9ef"/><path fill="#373f3f" d="M15.296 15.171l.943 1.505v-1.505h-.943z"/><path d="M16.682 5.956a10.065 10.065 0 010 20.13c-.15 0-.295-.016-.443-.023V5.978c.148-.006.293-.022.443-.022z" fill="#b8a5e4"/><path d="M22.739 16.02a6.5 6.5 0 01-6.5 6.5V9.521a6.5 6.5 0 016.5 6.5z" fill="#505957"/><path d="M18.347 15.17a2.27 2.27 0 01-2.108 3.127v-3.126z" fill="#e8ba36"/><path d="M18.347 15.17H16.24v-1.425a2.274 2.274 0 012.108 1.426z" fill="#c6b7e9"/><path fill="#2b3332" d="M17.182 15.171l-.943 1.505v-1.505h.943z"/><path d="M10.338 8.534L7.98 11.44c-.586-1.66-.619-3.138.384-4.278zm-3.564 8.719l1.176 3.554c-1.713-.402-2.976-1.172-3.396-2.631z" fill="#d4c9ef"/><path d="M25.21 14.687l-1.11-3.575c1.704.433 2.953 1.226 3.346 2.693zm-3.294 8.61l2.472-2.811c.519 1.68.494 3.16-.553 4.26zM25.641 0a9.605 9.605 0 00-3.41 1.466l2.075.548z" fill="#c6b7e9"/><path d="M24.306 2.014l-2.075-.548a16.371 16.371 0 00-1.749 1.361l2.834.68z" fill="#5c6664"/><path d="M16.842 6.746l2.656.659.713-1.7-2.151-.43q-.61.693-1.218 1.471z" fill="#c6b7e9"/><path d="M22.49 4.753l-3.188-.809q-.622.625-1.242 1.33l2.151.43 2.084-.658z" fill="#5c6664"/><path d="M23.316 3.507l-2.834-.68c-.394.344-.787.723-1.18 1.117l3.188.809z" fill="#c6b7e9"/><path d="M6.112 32a9.605 9.605 0 003.4-1.491l-2.08-.533z" fill="#d4c9ef"/><path d="M7.433 29.976l2.078.533a16.37 16.37 0 001.74-1.374l-2.84-.659z" fill="#687271"/><path d="M14.861 25.19l-2.66-.64-.7 1.706 2.154.415q.605-.7 1.206-1.482z" fill="#d4c9ef"/><path d="M9.229 27.224l3.193.786q.618-.63 1.233-1.34l-2.155-.414-2.08.674z" fill="#687271"/><path d="M8.412 28.476l2.838.66c.392-.348.783-.73 1.172-1.126l-3.193-.786z" fill="#d4c9ef"/></svg>
